X: 529
T: Shuzhuang tai
%%abc-version 2.0
%%abcx-abcm2ps-target-version 5.9.1 (29 Sep 2008)
%%abc-creator hum2abc beta
%%abcx-conversion-date 2013/10/02 07:52:30
%%abc-edited-by Helmut Schaffrath
%%humdrum-veritas 1254119061
%%humdrum-veritas-data 3359858564
%%continueall 1
%%barnumbers 0
L: 1/8
M: 2/4
K: F
F F F D [I:setbarnb 1]| 
c4 | 
d f c A | 
G FG2 | 
G Ac2 | 
f c A G | 
F C F D | 
C4 | 
D C/ D/F2 | 
G F/ G/A2 | 
G/ A/ G/ F/ F C | 
D4 | 
d f A c | 
d f c A | 
G G/ A/ F G | 
c G/ c/ G D | 
C4 | 
d f A c | 
d f c A | 
G G/ A/ F G | 
c G/ c/ G D | 
C4 |]  



